_src/static/img/icon/telegram.svg

<svg width="87" height="69" viewBox="0 0 87 69" fill="none" xmlns="http://www.w3.org/2000/svg">
<path d="M4.05095 28.4858L81.2058 0.344421C84.7868 -0.879391 87.9143 1.17081 86.754 6.29316L86.7607 6.28684L73.6237 64.8342C72.6501 68.9851 70.0427 69.9944 66.395 68.0389L46.3894 54.0912L36.7401 62.885C35.6731 63.8943 34.7729 64.7459 32.7056 64.7459L34.126 45.4867L71.203 13.8C72.8168 12.4564 70.8429 11.6994 68.7157 13.0367L22.8962 40.3265L3.14403 34.4976C-1.14383 33.2107 -1.23719 30.4413 4.05095 28.4858Z" fill="#039BE5"/>
</svg>

<svg width="87" height="69" fill="none" xmlns="http://www.w3.org/2000/svg"><path d="M4.051 28.486L81.206.344c3.58-1.223 6.708.827 5.548 5.95l.007-.007-13.137 58.547c-.974 4.151-3.581 5.16-7.229 3.205L46.389 54.09l-9.649 8.794c-1.067 1.01-1.967 1.86-4.034 1.86l1.42-19.258L71.203 13.8c1.614-1.344-.36-2.1-2.487-.763l-45.82 27.29-19.752-5.83c-4.288-1.286-4.381-4.056.907-6.011z" fill="#039BE5"/></svg>
